archdroid-icon-theme/Archdroid-Cyan/actions/scalable/edit-delete-mail.svg

<?xml version="1.0" encoding="UTF-8" standalone="no"?>
<svg
   xmlns:dc="http://purl.org/dc/elements/1.1/"
   xmlns:cc="http://creativecommons.org/ns#"
   xmlns:rdf="http://www.w3.org/1999/02/22-rdf-syntax-ns#"
   xmlns:svg="http://www.w3.org/2000/svg"
   xmlns="http://www.w3.org/2000/svg"
   xmlns:sodipodi="http://sodipodi.sourceforge.net/DTD/sodipodi-0.dtd"
   xmlns:inkscape="http://www.inkscape.org/namespaces/inkscape"
   fill="#00BCD4"
   width="48"
   height="48"
   viewBox="0 0 48 48"
   id="svg2"
   version="1.1"
   inkscape:version="0.91 r13725"
   sodipodi:docname="edit-delete-mail.svg">
  <metadata
     id="metadata10">
    <rdf:RDF>
      <cc:Work
         rdf:about="">
        <dc:format>image/svg+xml</dc:format>
        <dc:type
           rdf:resource="http://purl.org/dc/dcmitype/StillImage" />
      </cc:Work>
    </rdf:RDF>
  </metadata>
  <defs
     id="defs8" />
  <sodipodi:namedview
     pagecolor="#ffffff"
     bordercolor="#666666"
     borderopacity="1"
     objecttolerance="10"
     gridtolerance="10"
     guidetolerance="10"
     inkscape:pageopacity="0"
     inkscape:pageshadow="2"
     inkscape:window-width="1366"
     inkscape:window-height="713"
     id="namedview6"
     showgrid="false"
     inkscape:snap-bbox="true"
     inkscape:bbox-nodes="true"
     inkscape:zoom="7.795207766269932"
     inkscape:cx="13.63846512992308"
     inkscape:cy="9.277976558917592"
     inkscape:window-x="0"
     inkscape:window-y="30"
     inkscape:window-maximized="1"
     inkscape:current-layer="svg2" />
  <path
     id="path4"
     d="M 4,4 C 1.79,4 0.0195312499999997,5.790000000000001 0.01953125,8 L 0,32 c 0,2.21 1.79,4 4,4 l 21.1640625,0 A 13,13 0 0 1 25,34 13,13 0 0 1 38,21 13,13 0 0 1 40,21.171875 L 40,8 C 40,5.79 38.21,4.000000000000001 36,4 L 4,4 Z M 4,8 20,18 36,8 36,12 20,22 4,12 4,8 Z M 38,24 A 10,10 0 0 0 28,34 10,10 0 0 0 38,44 10,10 0 0 0 48,34 10,10 0 0 0 38,24 Z m 0,4 a 6,6 0 0 1 2.580078125,0.58984375 l -7.990234375,7.9921875 A 6,6 0 0 1 32,34 6,6 0 0 1 38,28 Z m 5.41015625,3.41796875 A 6,6 0 0 1 44,34 6,6 0 0 1 38,40 6,6 0 0 1 35.419921875,39.408203125 L 43.41015625,31.41796875 Z" />
</svg>

<svg xmlns="http://www.w3.org/2000/svg" fill="#00BCD4" viewBox="0 0 48 48"><path d="m4 4c-2.21 0-3.98 1.79-3.98 4l-.02 24c0 2.21 1.79 4 4 4h21.16a13 13 0 0 1 -.164063 -2 13 13 0 0 1 13 -13 13 13 0 0 1 2 .171875v-13.172c0-2.21-1.79-4-4-4h-32m0 4l16 10 16-10v4l-16 10-16-10v-4m34 16a10 10 0 0 0 -10 10 10 10 0 0 0 10 10 10 10 0 0 0 10 -10 10 10 0 0 0 -10 -10m0 4a6 6 0 0 1 2.580078 .589844l-7.99 7.992a6 6 0 0 1 -.589844 -2.582031 6 6 0 0 1 6 -6m5.410156 3.417969a6 6 0 0 1 .589844 2.582031 6 6 0 0 1 -6 6 6 6 0 0 1 -2.580078 -.591797l7.99-7.99"/></svg>
